SVG_Azure_All/Azure OpenAI.svg

<?xml version="1.0" encoding="UTF-8" standalone="no"?>
<!-- Generated by Microsoft Visio, SVG Export Azure OpenAI.svg Page-1 -->

<svg
   xmlns:dc="http://purl.org/dc/elements/1.1/"
   xmlns:cc="http://creativecommons.org/ns#"
   xmlns:rdf="http://www.w3.org/1999/02/22-rdf-syntax-ns#"
   xmlns:svg="http://www.w3.org/2000/svg"
   xmlns="http://www.w3.org/2000/svg"
   xmlns:sodipodi="http://sodipodi.sourceforge.net/DTD/sodipodi-0.dtd"
   xmlns:inkscape="http://www.inkscape.org/namespaces/inkscape"
   width="56.84993"
   height="57.00676"
   viewBox="0 0 56.849928 57.006762"
   xml:space="preserve"
   class="st2"
   version="1.1"
   id="svg19"
   sodipodi:docname="Azure OpenAI.svg"
   style="font-size:12px;overflow:visible;color-interpolation-filters:sRGB;fill:none;fill-rule:evenodd;stroke-linecap:square;stroke-miterlimit:3"
   inkscape:version="0.92.5 (2060ec1f9f, 2020-04-08)"><metadata
   id="metadata25"><rdf:RDF><cc:Work
       rdf:about=""><dc:format>image/svg+xml</dc:format><dc:type
         rdf:resource="http://purl.org/dc/dcmitype/StillImage" /></cc:Work></rdf:RDF></metadata><defs
   id="defs23" /><sodipodi:namedview
   pagecolor="#ffffff"
   bordercolor="#666666"
   borderopacity="1"
   objecttolerance="10"
   gridtolerance="10"
   guidetolerance="10"
   inkscape:pageopacity="0"
   inkscape:pageshadow="2"
   inkscape:window-width="640"
   inkscape:window-height="480"
   id="namedview21"
   showgrid="false"
   inkscape:zoom="2.2908174"
   inkscape:cx="28.425685"
   inkscape:cy="17.49447"
   inkscape:window-x="0"
   inkscape:window-y="0"
   inkscape:window-maximized="0"
   inkscape:current-layer="svg19" />
	<style
   type="text/css"
   id="style2">
	<![CDATA[
		.st1 {fill:#000000;stroke:none;stroke-linecap:butt;stroke-width:12}
		.st2 {fill:none;fill-rule:evenodd;font-size:12px;overflow:visible;stroke-linecap:square;stroke-miterlimit:3}
	]]>
	</style>

	<g
   id="g17"
   transform="translate(-12.000467,-11.997709)">
		<title
   id="title4">Page-1</title>
		<g
   id="group8169-1"
   transform="translate(12.0789,-34.0157)">
			<title
   id="title6">Azure OpenAI</title>
			<g
   id="group8170-2">
				<title
   id="title8">Sheet.8170</title>
				<g
   id="shape8171-3">
					<title
   id="title10">Sheet.8171</title>
					<path
   d="M 53.04,69.34 A 14.3722,14.2148 -180 0 0 51.8,57.68 14.5199,14.3609 -180 0 0 36.17,50.79 a 14.5653,14.4058 -180 0 0 -24.68,5.16 14.3722,14.2148 -180 0 0 -9.6,6.89 14.5199,14.3609 -180 0 0 1.78,16.85 14.3608,14.2035 -180 0 0 1.23,11.67 14.5312,14.3721 -180 0 0 15.65,6.88 14.3722,14.2148 -180 0 0 10.82,4.78 14.5426,14.3833 -180 0 0 13.86,-9.99 14.3835,14.226 -180 0 0 9.6,-6.89 14.5426,14.3833 -180 0 0 -1.79,-16.8 z M 31.37,99.29 a 10.7479,10.6302 0 0 1 -6.9,-2.47 l 0.34,-0.19 11.47,-6.56 a 1.90872,1.88781 -180 0 0 0.94,-1.61 v -16 l 4.86,2.77 a 0.170421,0.168555 0 0 1 0.09089,0.123607 L 42.17,88.61 A 10.8161,10.6976 0 0 1 31.37,99.29 Z M 8.17,89.49 A 10.7365,10.6189 0 0 1 6.89,82.33 l 0.34,0.2 11.49,6.56 a 1.85191,1.83163 -180 0 0 1.87,0 l 14.03,-8 v 5.54 a 0.193144,0.191029 0 0 1 -0.07953,0.146081 L 22.92,93.4 A 10.8047,10.6864 0 0 1 8.17,89.49 Z M 5.15,64.77 a 10.7706,10.6527 0 0 1 5.68,-4.69 v 13.49 a 1.84055,1.82039 -180 0 0 0.93,1.6 l 13.97,7.97 -4.86,2.78 a 0.181783,0.179792 0 0 1 -0.170421,0 L 9.1,79.3 A 10.8161,10.6976 0 0 1 5.15,64.71 Z M 45.01,73.93 31,65.88 35.84,63.12 a 0.181783,0.179792 0 0 1 0.170421,0 L 47.61,69.75 A 10.7933,10.6751 0 0 1 45.98,89 V 75.51 a 1.89736,1.87658 -180 0 0 -0.97,-1.58 z m 4.83,-7.18 -0.35,-0.21 -11.46,-6.6 a 1.86327,1.84286 -180 0 0 -1.89,0 l -14.02,8 V 62.4 a 0.15906,0.157318 0 0 1 0.06817,-0.146081 L 33.79,55.63 A 10.8047,10.6864 0 0 1 49.84,66.7 Z M 19.48,76.57 14.63,73.8 A 0.193144,0.191029 0 0 1 14.53911,73.665156 L 14.54,60.44 a 10.8047,10.6864 0 0 1 17.71,-8.2 l -0.34,0.19 -11.48,6.55 a 1.90872,1.88781 -180 0 0 -0.94,1.62 z m 2.63,-5.62 6.25,-3.56 6.26,3.56 v 7.12 l -6.24,3.57 -6.26,-3.57 z"
   class="st1"
   id="path12"
   inkscape:connector-curvature="0"
   style="fill:#000000;stroke:none;stroke-width:12;stroke-linecap:butt" />
				</g>
			</g>
		</g>
	</g>
</svg>

<?xml version="1.0" encoding="UTF-8" standalone="no"?>
<!DOCTYPE svg PUBLIC "-//W3C//DTD SVG 1.1//EN" "http://www.w3.org/Graphics/SVG/1.1/DTD/svg11.dtd">
<!-- Generated by Microsoft Visio, SVG Export Azure OpenAI.svg Page-1 -->
<svg xmlns="http://www.w3.org/2000/svg" xmlns:xlink="http://www.w3.org/1999/xlink" xmlns:ev="http://www.w3.org/2001/xml-events"
		width="1.12295in" height="1.43083in" viewBox="0 0 80.8523 103.02" xml:space="preserve" color-interpolation-filters="sRGB"
		class="st2">
	<style type="text/css">
	<![CDATA[
		.st1 {fill:#000000;stroke:none;stroke-linecap:butt;stroke-width:12}
		.st2 {fill:none;fill-rule:evenodd;font-size:12px;overflow:visible;stroke-linecap:square;stroke-miterlimit:3}
	]]>
	</style>

	<g>
		<title>Page-1</title>
		<g id="group8783-1" transform="translate(12.0789,-34.0157)">
			<title>Azure OpenAI</title>
			<g id="group8784-2">
				<title>Sheet.8784</title>
				<g id="shape8785-3">
					<title>Sheet.8785</title>
					<path d="M53.04 69.34 A14.3722 14.2148 -180 0 0 51.8 57.68 A14.5199 14.3609 -180 0 0 36.17 50.79 A14.5653 14.4058
								 -180 0 0 11.49 55.95 A14.3722 14.2148 -180 0 0 1.89 62.84 A14.5199 14.3609 -180 0 0 3.67 79.69 A14.3608
								 14.2035 -180 0 0 4.9 91.36 A14.5312 14.3721 -180 0 0 20.55 98.24 A14.3722 14.2148 -180 0 0 31.37
								 103.02 A14.5426 14.3833 -180 0 0 45.23 93.03 A14.3835 14.226 -180 0 0 54.83 86.14 A14.5426 14.3833
								 -180 0 0 53.04 69.34 ZM31.37 99.29 A10.7479 10.6302 0 0 1 24.47 96.82 L24.81 96.63 L36.28 90.07
								 A1.90872 1.88781 -180 0 0 37.22 88.46 L37.22 72.46 L42.08 75.23 a0.170421 0.168555 0 0 1 0.0908913
								 0.123607 L42.17 88.61 A10.8161 10.6976 0 0 1 31.37 99.29 ZM8.17 89.49 A10.7365 10.6189 0 0 1 6.89
								 82.33 L7.23 82.53 L18.72 89.09 A1.85191 1.83163 -180 0 0 20.59 89.09 L34.62 81.09 L34.62 86.63 a0.193144
								 0.191029 0 0 1 -0.0795299 0.146081 L22.92 93.4 A10.8047 10.6864 0 0 1 8.17 89.49 ZM5.15 64.77 A10.7706
								 10.6527 0 0 1 10.83 60.08 L10.83 73.57 A1.84055 1.82039 -180 0 0 11.76 75.17 L25.73 83.14 L20.87
								 85.92 a0.181783 0.179792 0 0 1 -0.170421 2.84217E-13 L9.1 79.3 A10.8161 10.6976 0 0 1 5.15 64.71
								 L5.15 64.77 ZM45.01 73.93 L31 65.88 L35.84 63.12 a0.181783 0.179792 0 0 1 0.170421 9.66338E-13 L47.61
								 69.75 A10.7933 10.6751 0 0 1 45.98 89 L45.98 75.51 A1.89736 1.87658 -180 0 0 45.01 73.93 ZM49.84
								 66.75 L49.49 66.54 L38.03 59.94 A1.86327 1.84286 -180 0 0 36.14 59.94 L22.12 67.94 L22.12 62.4 a0.15906
								 0.157318 0 0 1 0.0681684 -0.146081 L33.79 55.63 A10.8047 10.6864 0 0 1 49.84 66.7 L49.84 66.75 ZM19.48
								 76.57 L14.63 73.8 a0.193144 0.191029 0 0 1 -0.0908913 -0.134844 L14.54 60.44 A10.8047 10.6864 0
								 0 1 32.25 52.24 L31.91 52.43 L20.43 58.98 A1.90872 1.88781 -180 0 0 19.49 60.6 L19.48 76.57 ZM22.11
								 70.95 L28.36 67.39 L34.62 70.95 L34.62 78.07 L28.38 81.64 L22.12 78.07 L22.11 70.95 Z" class="st1"/>
				</g>
			</g>
		</g>
	</g>
</svg>
